static/assets/images/connection.svg

<?xml version="1.0" encoding="UTF-8" standalone="no"?>
<svg
   xmlns:dc="http://purl.org/dc/elements/1.1/"
   xmlns:cc="http://creativecommons.org/ns#"
   xmlns:rdf="http://www.w3.org/1999/02/22-rdf-syntax-ns#"
   xmlns:svg="http://www.w3.org/2000/svg"
   xmlns="http://www.w3.org/2000/svg"
   xmlns:sodipodi="http://sodipodi.sourceforge.net/DTD/sodipodi-0.dtd"
   xmlns:inkscape="http://www.inkscape.org/namespaces/inkscape"
   version="1.1"
   x="0px"
   y="0px"
   viewBox="0 0 100 100"
   enable-background="new 0 0 100 100"
   xml:space="preserve"
   id="svg2"
   inkscape:version="0.91 r"
   sodipodi:docname="connection.svg"><metadata
     id="metadata12"><rdf:RDF><cc:Work
         rdf:about=""><dc:format>image/svg+xml</dc:format><dc:type
           rdf:resource="http://purl.org/dc/dcmitype/StillImage" /></cc:Work></rdf:RDF></metadata><defs
     id="defs10" /><sodipodi:namedview
     pagecolor="#ffffff"
     bordercolor="#666666"
     borderopacity="1"
     objecttolerance="10"
     gridtolerance="10"
     guidetolerance="10"
     inkscape:pageopacity="0"
     inkscape:pageshadow="2"
     inkscape:window-width="1680"
     inkscape:window-height="998"
     id="namedview8"
     showgrid="false"
     inkscape:zoom="2.36"
     inkscape:cx="50.847458"
     inkscape:cy="50"
     inkscape:window-x="0"
     inkscape:window-y="0"
     inkscape:window-maximized="1"
     inkscape:current-layer="svg2" /><path
     d="m 40.458866,69.980129 c -0.003,0.004 -0.0069,0.006 -0.0093,0.0095 l -10.020721,10.01953 c -1.039142,1.0374 -2.428414,1.608532 -3.913861,1.608532 -1.486352,0 -2.876472,-0.571132 -3.9156,-1.609396 L 19.99095,77.398523 c -1.038267,-1.038276 -1.610264,-2.42839 -1.610264,-3.913861 0,-1.48546 0.571997,-2.876461 1.610264,-3.914727 L 33.038546,56.521634 c 0.003,-0.002 0.006,-0.005 0.0093,-0.0079 L 41.27937,48.281328 C 39.907402,47.79688 38.453992,47.53081 36.952928,47.53081 c -3.457126,0 -6.7002,1.339018 -9.132068,3.771748 L 14.7726,64.352873 C 12.339867,66.784727 11,70.026929 11,73.484927 c 0,3.458007 1.339867,6.701073 3.7726,9.1338 l 2.609534,2.609544 C 19.814873,87.660999 23.057927,89 26.515934,89 c 3.457137,0 6.7002,-1.339001 9.132066,-3.771729 L 48.695666,72.179729 c 2.432735,-2.432728 3.772605,-5.674929 3.772605,-9.132063 0,-1.500195 -0.266937,-2.954466 -0.750537,-4.325532 L 40.458866,69.980129 Z M 85.227399,17.381273 82.617866,14.771732 C 80.186,12.33987 76.942073,11 73.4858,11 c -3.457134,0 -6.7002,1.339003 -9.132927,3.771732 L 51.304334,27.819399 c -2.432735,2.431874 -3.771733,5.675801 -3.771733,9.132935 0,1.500195 0.266926,2.955339 0.751399,4.326393 l 8.238534,-8.238526 c 8.65e-4,0 8.65e-4,0 8.65e-4,0 L 69.571934,19.991666 c 1.038265,-1.038265 2.429267,-1.610267 3.914739,-1.610267 1.485456,0 2.875593,0.572002 3.914727,1.610267 l 2.609529,2.609533 c 1.0374,1.038272 1.609398,2.428402 1.609398,3.913874 0,1.485456 -0.570261,2.875593 -1.609398,3.913854 L 69.9836,40.457129 c 0,0 0,0 -8.73e-4,8.72e-4 L 58.722134,51.716 c 1.370193,0.484473 2.824465,0.750534 4.323795,0.750534 3.457137,0 6.7002,-1.339005 9.132942,-3.771733 L 85.227399,35.646266 C 87.660134,33.215273 89,29.972199 89,26.5142 89,23.056201 87.660134,19.813127 85.227399,17.381273 Z"
     id="path4"
     inkscape:connector-curvature="0" /><path
     d="m 35.239801,68.451329 c -0.9438,0 -1.888472,-0.359658 -2.609528,-1.080729 -1.441274,-1.440401 -1.441274,-3.776073 0,-5.2182 l 29.521254,-29.523 c 1.439544,-1.440401 3.776946,-1.440401 5.2182,0 1.441274,1.441266 1.441274,3.777799 0,5.219073 L 37.848473,67.3706 c -0.720207,0.721071 -1.664872,1.080729 -2.608672,1.080729 z"
     id="path6"
     inkscape:connector-curvature="0" /></svg>

<?xml version="1.0" encoding="UTF-8" standalone="no"?>
<svg xmlns:rdf="http://www.w3.org/1999/02/22-rdf-syntax-ns#" xmlns="http://www.w3.org/2000/svg" enable-background="new 0 0 100 100" xml:space="preserve" version="1.1" y="0px" x="0px" xmlns:cc="http://creativecommons.org/ns#" xmlns:dc="http://purl.org/dc/elements/1.1/" viewBox="0 0 100 100"><path d="m40.459 69.98c-0.003 0.004-0.0069 0.006-0.0093 0.0095l-10.021 10.02c-1.0391 1.0374-2.4284 1.6085-3.9139 1.6085-1.4864 0-2.8765-0.57113-3.9156-1.6094l-2.609-2.61c-1.0383-1.0383-1.6103-2.4284-1.6103-3.9139s0.572-2.8765 1.6103-3.9147l13.048-13.048c0.003-0.002 0.006-0.005 0.0093-0.0079l8.231-8.233c-1.372-0.484-2.825-0.75-4.326-0.75-3.4571 0-6.7002 1.339-9.1321 3.7717l-13.048 13.05c-2.433 2.432-3.773 5.674-3.773 9.132s1.3399 6.7011 3.7726 9.1338l2.6095 2.6095c2.433 2.433 5.676 3.772 9.134 3.772 3.4571 0 6.7002-1.339 9.1321-3.7717l13.048-13.048c2.4327-2.4327 3.7726-5.6749 3.7726-9.1321 0-1.5002-0.26694-2.9545-0.75054-4.3255l-11.259 11.258zm44.768-52.599-2.609-2.609c-2.432-2.432-5.676-3.772-9.132-3.772-3.4571 0-6.7002 1.339-9.1329 3.7717l-13.049 13.047c-2.4327 2.4319-3.7717 5.6758-3.7717 9.1329 0 1.5002 0.26693 2.9553 0.7514 4.3264l8.2385-8.2385h0.000865l13.049-13.048c1.0383-1.0383 2.4293-1.6103 3.9147-1.6103 1.4855 0 2.8756 0.572 3.9147 1.6103l2.6095 2.6095c1.0374 1.0383 1.6094 2.4284 1.6094 3.9139s-0.57026 2.8756-1.6094 3.9139l-10.026 10.027-0.000873 0.000872-11.261 11.258c1.3702 0.48447 2.8245 0.75053 4.3238 0.75053 3.4571 0 6.7002-1.339 9.1329-3.7717l13.048-13.049c2.433-2.431 3.773-5.674 3.773-9.132s-1.34-6.701-3.773-9.133z"/><path d="m35.24 68.451c-0.9438 0-1.8885-0.35966-2.6095-1.0807-1.4413-1.4404-1.4413-3.7761 0-5.2182l29.521-29.523c1.4395-1.4404 3.7769-1.4404 5.2182 0 1.4413 1.4413 1.4413 3.7778 0 5.2191l-29.521 29.523c-0.72021 0.72107-1.6649 1.0807-2.6087 1.0807z"/></svg>
